X:173
T:Pa Keane's Polka 
F:file ID: jol/173keanes
Z:bill@capeirish.com
B:JOL.205
Q:120
L:1/8
N:Kind of an odd tune that sounds like it should return 
to the first part to close. The A-B-A structure is mine, 
not the source's.
M:2/4
R:polka
K:D
Ad cB|AF DE/D/|GF/G/ BA|FA DE/D/|
"5"Ad cB|AF DE/F/|GE BA|D2 D2 :|
|:"9"dc/d/ fa|ge ed/e/|A/B/c/d/ eg|fd dA|
"13"dA/d/ fa|ge e/f/e/d/|cB ba|d2 d2 :|
K:A
|:"17"A>G AF|FE EB/c/|d>c dB|c2 c/d/c/B/|
"21"Ad fe/c/|Ac ec/B/|AB/c/ df|e2 e2|
"25"ag af|e^d ec|Bc/B/ AF|E2 E2|
"29"e^d/e/ fe|cA FA|EF A>B|A2-A=G|
P:return to A part
K:D
|:"1a"Ad cB|AF DE/D/|GF/G/ BA|FA DE/D/|
"5a"Ad cB|AF DE/F/|GE BA|1D2 D2 :|2D2D2-|HD4||

